!!!OTL: 1466. Der bayerische Hiesel. / [Wildschuetz und Raeuber.]
!!!ARE: Europa, Mitteleuropa, Deutschland, Bayern, Landshut
!!!SCT: E1466
!!!TXL: @@BAR
!!!YEM: Copyright 1995, estate of Helmut Schaffrath.
**kern	**text
*ICvox	*
*M3/4	*
*k[b-]	*
*F:	*
!LO:TX:a:t=I. Melodie.	!
{8aq	1._A
4cc	.
=1	=1
4dd	Lied-
4.b-	-la
8dd	ʒ'
=2	=2
4cc	ſin-
4.a}	-ga,
{8cc	a
=3	=3
4b-/	Lied-
4g	-la
8gL	aufs
8b-J	.
=4	=4
(4b-/	Neu,
4a)	.
8r}	.
{8cc	von
=5	=5
4dd	o-
4b-	-an
4dd	Wild-
=6	=6
4cc	-ſchütʒ'n
4.a}	.
{8cc	im
=7	=7
8ccq	.
4b-	Roa-
4g	-ſta-
8eL	-dter
8gJ	.
=8	=8
4f	Gäu,
4a}	u.
{4cc	in
=9	=9
8ccq	.
4b-	Roa-
4g	-ſta-
4g	-dter
=10	=10
2f}	Gäu.
==	==
!!!AGN: Staende -, Jaeger - Lied, Wilderer
!!!ONB: ESAC (Essen Associative Code) Database: ERK3
!!!AMT: simple triple
!!!AIN: vox
!!!EED: Helmut Schaffrath
!!!EEV: 1.0
!!!GTL: Staendelieder (Berufslieder). 2. Jaegerlieder und Jaegerballaden.
!!!URL-scan: https://rosdok.uni-rostock.de/mcrviewer/recordIdentifier/rosdok_ppn745177999/iview2/phys_0328.iview2?x=-128.77276441889285&y=1346.5822836332954&scale=0.5870222003877487&rotation=0&layout=singlePageLayout
!!!ENC: Anna Maria Matuszewska
!!!EEV: 2024/12/31
*-	*-
